public/images/forum.svg

<?xml version="1.0" encoding="UTF-8" standalone="no"?>
<svg
   width="125"
   height="125"
   viewBox="0 0 125 125"
   fill="none"
   version="1.1"
   id="svg9"
   sodipodi:docname="forum.svg"
   inkscape:version="1.3 (0e150ed6c4, 2023-07-21)"
   xmlns:inkscape="http://www.inkscape.org/namespaces/inkscape"
   xmlns:sodipodi="http://sodipodi.sourceforge.net/DTD/sodipodi-0.dtd"
   xmlns="http://www.w3.org/2000/svg"
   xmlns:svg="http://www.w3.org/2000/svg">
  <sodipodi:namedview
     id="namedview9"
     pagecolor="#ffffff"
     bordercolor="#000000"
     borderopacity="0.25"
     inkscape:showpageshadow="2"
     inkscape:pageopacity="0.0"
     inkscape:pagecheckerboard="0"
     inkscape:deskcolor="#d1d1d1"
     inkscape:zoom="5.74"
     inkscape:cx="75"
     inkscape:cy="75"
     inkscape:window-width="1920"
     inkscape:window-height="1043"
     inkscape:window-x="0"
     inkscape:window-y="0"
     inkscape:window-maximized="1"
     inkscape:current-layer="svg9" />
  <g
     clip-path="url(#clip0_9_163)"
     id="g9"
     transform="scale(0.83333333)">
    <path
       d="M 28.125,39.0625 V 10.9375 C 28.125,9.3125 28.3125,7.75 28.75,6.25 H 10.9375 C 4.9375,6.25 0,11.1875 0,17.1875 v 28.125 c 0,6 4.9375,10.9375 10.9375,10.9375 H 13.25 l 8,10.625 c 0.875,1.125 2.1875,1.8125 3.5625,1.875 H 25 c 1.375,0 2.625,-0.5625 3.5,-1.625 l 9.375,-10.6875 c -5.8125,-3.625 -9.75,-10.0625 -9.75,-17.375 z"
       fill="#003366"
       id="path1" />
    <path
       d="M 139.062,6.25 H 121.25 c 0.437,1.5 0.625,3.0625 0.625,4.6875 v 28.125 c 0,7.3125 -3.937,13.75 -9.75,17.375 L 121.5,67.125 c 0.875,1.0625 2.125,1.625 3.5,1.625 h 0.188 c 1.375,-0.0625 2.687,-0.75 3.562,-1.875 l 7.938,-10.625 h 2.374 c 6,0 10.938,-4.9375 10.938,-10.9375 v -28.125 c 0,-6 -4.938,-10.9375 -10.938,-10.9375 z"
       fill="#003366"
       id="path2" />
    <path
       d="m 75,62.5 c -0.0562,0 -0.1187,0 -0.175,0 C 73.4125,62.4437 72.1,61.7562 71.25,60.625 L 63.2812,50 H 48.4375 C 42.4063,50 37.5,45.0937 37.5,39.0625 V 10.9375 C 37.5,4.90624 42.4063,-7.62939e-6 48.4375,-7.62939e-6 H 101.562 C 107.594,-7.62939e-6 112.5,4.90624 112.5,10.9375 v 28.125 C 112.5,45.0937 107.594,50 101.562,50 H 88.0625 L 78.525,60.9 C 77.6375,61.9187 76.35,62.5 75,62.5 Z"
       fill="#003366"
       id="path3" />
    <path
       d="m 25,106.25 c 6.9036,0 12.5,-5.596 12.5,-12.5 0,-6.9036 -5.5964,-12.5 -12.5,-12.5 -6.9036,0 -12.5,5.5964 -12.5,12.5 0,6.904 5.5964,12.5 12.5,12.5 z"
       fill="#003366"
       id="path4" />
    <path
       d="M 41.6875,115 C 35.375,119.75 31.25,127.375 31.25,135.938 V 137.5 H 4.6875 C 2.125,137.5 0,135.375 0,132.812 v -3.124 C 0,120.188 7.6875,112.5 17.1875,112.5 h 15.625 c 3.25,0 6.3125,0.937 8.875,2.5 z"
       fill="#003366"
       id="path5" />
    <path
       d="m 125,106.25 c 6.904,0 12.5,-5.596 12.5,-12.5 0,-6.9036 -5.596,-12.5 -12.5,-12.5 -6.904,0 -12.5,5.5964 -12.5,12.5 0,6.904 5.596,12.5 12.5,12.5 z"
       fill="#003366"
       id="path6" />
    <path
       d="m 150,129.688 v 3.124 c 0,2.563 -2.125,4.688 -4.687,4.688 H 118.75 v -1.562 c 0,-8.563 -4.125,-16.188 -10.438,-20.938 2.563,-1.563 5.626,-2.5 8.876,-2.5 h 15.625 c 9.5,0 17.187,7.688 17.187,17.188 z"
       fill="#003366"
       id="path7" />
    <path
       d="m 75,109.375 c 10.3553,0 18.75,-8.395 18.75,-18.75 0,-10.3553 -8.3947,-18.75 -18.75,-18.75 -10.3553,0 -18.75,8.3947 -18.75,18.75 0,10.355 8.3947,18.75 18.75,18.75 z"
       fill="#003366"
       id="path8" />
    <path
       d="m 92.1875,118.75 h -34.375 c -9.4812,0 -17.1875,7.706 -17.1875,17.188 v 9.374 c 0,2.588 2.1,4.688 4.6875,4.688 h 59.3755 c 2.587,0 4.687,-2.1 4.687,-4.688 v -9.374 c 0,-9.482 -7.706,-17.188 -17.1875,-17.188 z"
       fill="#003366"
       id="path9" />
  </g>
  <defs
     id="defs9">
    <clipPath
       id="clip0_9_163">
      <rect
         width="150"
         height="150"
         fill="#ffffff"
         id="rect9"
         x="0"
         y="0" />
    </clipPath>
  </defs>
</svg>

<svg width="150" height="150" viewBox="0 0 150 150" fill="none" xmlns="http://www.w3.org/2000/svg">
<g clip-path="url(#clip0_9_163)">
<path d="M28.125 39.0625V10.9375C28.125 9.3125 28.3125 7.75 28.75 6.25H10.9375C4.9375 6.25 0 11.1875 0 17.1875V45.3125C0 51.3125 4.9375 56.25 10.9375 56.25H13.25L21.25 66.875C22.125 68 23.4375 68.6875 24.8125 68.75H25C26.375 68.75 27.625 68.1875 28.5 67.125L37.875 56.4375C32.0625 52.8125 28.125 46.375 28.125 39.0625V39.0625Z" fill="#003366"/>
<path d="M139.062 6.25H121.25C121.687 7.75 121.875 9.3125 121.875 10.9375V39.0625C121.875 46.375 117.938 52.8125 112.125 56.4375L121.5 67.125C122.375 68.1875 123.625 68.75 125 68.75H125.188C126.563 68.6875 127.875 68 128.75 66.875L136.688 56.25H139.062C145.062 56.25 150 51.3125 150 45.3125V17.1875C150 11.1875 145.062 6.25 139.062 6.25V6.25Z" fill="#003366"/>
<path d="M75 62.5C74.9438 62.5 74.8813 62.5 74.825 62.5C73.4125 62.4437 72.1 61.7562 71.25 60.625L63.2812 50H48.4375C42.4063 50 37.5 45.0937 37.5 39.0625V10.9375C37.5 4.90624 42.4063 -7.62939e-06 48.4375 -7.62939e-06H101.562C107.594 -7.62939e-06 112.5 4.90624 112.5 10.9375V39.0625C112.5 45.0937 107.594 50 101.562 50H88.0625L78.525 60.9C77.6375 61.9187 76.35 62.5 75 62.5Z" fill="#003366"/>
<path d="M25 106.25C31.9036 106.25 37.5 100.654 37.5 93.75C37.5 86.8464 31.9036 81.25 25 81.25C18.0964 81.25 12.5 86.8464 12.5 93.75C12.5 100.654 18.0964 106.25 25 106.25Z" fill="#003366"/>
<path d="M41.6875 115C35.375 119.75 31.25 127.375 31.25 135.938V137.5H4.6875C2.125 137.5 0 135.375 0 132.812V129.688C0 120.188 7.6875 112.5 17.1875 112.5H32.8125C36.0625 112.5 39.125 113.437 41.6875 115Z" fill="#003366"/>
<path d="M125 106.25C131.904 106.25 137.5 100.654 137.5 93.75C137.5 86.8464 131.904 81.25 125 81.25C118.096 81.25 112.5 86.8464 112.5 93.75C112.5 100.654 118.096 106.25 125 106.25Z" fill="#003366"/>
<path d="M150 129.688V132.812C150 135.375 147.875 137.5 145.313 137.5H118.75V135.938C118.75 127.375 114.625 119.75 108.312 115C110.875 113.437 113.938 112.5 117.188 112.5H132.813C142.313 112.5 150 120.188 150 129.688Z" fill="#003366"/>
<path d="M75 109.375C85.3553 109.375 93.75 100.98 93.75 90.625C93.75 80.2697 85.3553 71.875 75 71.875C64.6447 71.875 56.25 80.2697 56.25 90.625C56.25 100.98 64.6447 109.375 75 109.375Z" fill="#003366"/>
<path d="M92.1875 118.75H57.8125C48.3313 118.75 40.625 126.456 40.625 135.938V145.312C40.625 147.9 42.725 150 45.3125 150H104.688C107.275 150 109.375 147.9 109.375 145.312V135.938C109.375 126.456 101.669 118.75 92.1875 118.75Z" fill="#003366"/>
</g>
<defs>
<clipPath id="clip0_9_163">
<rect width="150" height="150" fill="white"/>
</clipPath>
</defs>
</svg>
